Suru++-Ubuntu/apps/scalable/deviantart.svg

<svg width="256" height="256" version="1.1" viewBox="0 0 256 256" xmlns="http://www.w3.org/2000/svg" xmlns:xlink="http://www.w3.org/1999/xlink">
 <defs>
  <linearGradient id="linearGradient1108" x1="296" x2="296" y1="-212" y2="236" gradientUnits="userSpaceOnUse">
   <stop style="stop-color:#ffffff" offset="0"/>
   <stop style="stop-color:#ffffff;stop-opacity:.09803922" offset=".125"/>
   <stop style="stop-color:#000000;stop-opacity:.09803922" offset=".925"/>
   <stop style="stop-color:#000000;stop-opacity:.49803922" offset="1"/>
  </linearGradient>
  <clipPath id="clipPath1082-3-361">
   <path d="M 361.9375,-212 C 507.2348,-212 528,-191.28677 528,-46.125 V 70.125 C 528,215.28618 507.2348,236 361.9375,236 H 214.0625 C 68.7652,236 48,215.28618 48,70.125 V -46.125 C 48,-191.28677 68.7652,-212 214.0625,-212 Z" style="fill:#8c59d9"/>
  </clipPath>
  <filter id="filter4569" x="-.01" y="-.01" width="1.023" height="1.025" style="color-interpolation-filters:sRGB">
   <feGaussianBlur stdDeviation="1.16"/>
  </filter>
  <filter id="filter939" x="-.02" y="-.03" width="1.046" height="1.05" style="color-interpolation-filters:sRGB">
   <feGaussianBlur stdDeviation="2.32"/>
  </filter>
  <clipPath id="clipPath16">
   <path d="m0 512h512v-512h-512z"/>
  </clipPath>
  <filter id="filter2565" x="-.06" y="-.04" width="1.126" height="1.078" style="color-interpolation-filters:sRGB">
   <feGaussianBlur stdDeviation="3.666"/>
  </filter>
 </defs>
 <path transform="matrix(1.019368,0,0,1.019368,-7.2181772e-8,8.3098661)" d="m162.53675 5.5680001c72.64865 0 83.03125 10.356615 83.03125 82.937505v58.125005c0 72.58059-10.3826 82.9375-83.03125 82.9375h-73.937496c-72.648654 0-83.031254-10.35691-83.031254-82.9375v-58.125005c0-72.58089 10.3826-82.937505 83.031254-82.937505z" style="filter:url(#filter939);opacity:.2"/>
 <path d="m165.68477 11.946967c74.05571 0 84.6394 10.557203 84.6394 84.543835v59.250778c0 73.98633-10.58369 84.54383-84.6394 84.54383h-75.369521c-74.055717 0-84.639408-10.5575-84.639408-84.54383v-59.250778c0-73.986632 10.583691-84.543835 84.639408-84.543835z" style="fill:none;opacity:.1;stroke-linecap:round;stroke-linejoin:round;stroke-width:4.0774717;stroke:#000000"/>
 <path transform="matrix(1.019368,0,0,1.019368,-7.2181772e-8,8.3098661)" d="m162.53675 3.5680001c72.64865 0 83.03125 10.356615 83.03125 82.937505v58.125005c0 72.58059-10.3826 82.9375-83.03125 82.9375h-73.937496c-72.648654 0-83.031254-10.35691-83.031254-82.9375v-58.125005c0-72.58089 10.3826-82.937505 83.031254-82.937505z" style="filter:url(#filter4569);opacity:.1"/>
 <path d="m165.68476 11.946967c74.05571 0 84.6394 10.557203 84.6394 84.543835v59.250778c0 73.98633-10.58369 84.54383-84.6394 84.54383h-75.369522c-74.055712 0-84.639403-10.5575-84.639403-84.54383v-59.250778c0-73.986632 10.583691-84.543835 84.639403-84.543835z" style="fill:#49b749"/>
 <path transform="matrix(.50968403 0 0 .50968403 -18.788999 120)" d="M 361.9375,-212 C 507.2348,-212 528,-191.28677 528,-46.125 V 70.125 C 528,215.28618 507.2348,236 361.9375,236 H 214.0625 C 68.7652,236 48,215.28618 48,70.125 V -46.125 C 48,-191.28677 68.7652,-212 214.0625,-212 Z" clip-path="url(#clipPath1082-3-361)" style="fill:none;opacity:.4;stroke-linecap:round;stroke-linejoin:round;stroke-width:8;stroke:url(#linearGradient1108)"/>
 <path d="m127.69157 11.946967v228.33844h37.77978c74.24243 0 84.85281-10.5575 84.85281-84.54383v-59.250778c0-73.986632-10.61038-84.543835-84.85281-84.543835z" style="fill:#ffffff;opacity:.2"/>
 <path d="m90.315238 240.28541c-74.055712 0-84.639403-10.5572-84.639403-84.54383v-29.62537h244.64832v29.62537c0 73.98663-10.58369 84.54383-84.6394 84.54383z" style="fill:#ffffff;opacity:.25"/>
 <g transform="matrix(.70654214 0 0 -.70654214 -52.875073 306.99126)" style="fill:#0e0e0e;filter:url(#filter2565);opacity:.3">
  <g style="fill:#0e0e0e">
   <g clip-path="url(#clipPath16)" style="fill:#0e0e0e">
    <g transform="translate(323.9554,323.9949)" style="fill:#0e0e0e">
     <path d="m0 0h2e-3l2.126 4.057v41.176h-41.176l-4.109-4.145-19.429-37.026-6.11-4.122h-69.342v-56.545h38.122l3.395-4.107-39.39-75.278h-2e-3l-2.125-4.057v-41.175h41.175l4.109 4.144 19.429 37.026 6.11 4.122h69.343v56.545h-38.122l-3.392 4.135z" style="fill:#0e0e0e"/>
    </g>
   </g>
  </g>
 </g>
 <g transform="matrix(.70654214 0 0 -.70654214 -52.875073 306.99126)" style="fill:#ffffff">
  <g style="fill:#ffffff">
   <g clip-path="url(#clipPath16)" style="fill:#ffffff">
    <g transform="translate(323.9554,323.9949)" style="fill:#ffffff">
     <path d="m0 0h2e-3l2.126 4.057v41.176h-41.176l-4.109-4.145-19.429-37.026-6.11-4.122h-69.342v-56.545h38.122l3.395-4.107-39.39-75.278h-2e-3l-2.125-4.057v-41.175h41.175l4.109 4.144 19.429 37.026 6.11 4.122h69.343v56.545h-38.122l-3.392 4.135z" style="fill:#ffffff"/>
    </g>
   </g>
  </g>
 </g>
</svg>

<svg xmlns="http://www.w3.org/2000/svg" xmlns:xlink="http://www.w3.org/1999/xlink" width="256" height="256" version="1.1" viewBox="0 0 256 256">
 <defs>
  <linearGradient id="linearGradient1108" x1="296" x2="296" y1="-212" y2="236" gradientUnits="userSpaceOnUse" xlink:href="#linearGradient1013"/>
  <linearGradient id="linearGradient1013">
   <stop offset="0" style="stop-color:#ffffff"/>
   <stop style="stop-color:#ffffff;stop-opacity:0.09803922" offset=".125"/>
   <stop style="stop-color:#000000;stop-opacity:0.09803922" offset=".925"/>
   <stop offset="1" style="stop-color:#000000;stop-opacity:0.49803922"/>
  </linearGradient>
  <clipPath id="clipPath1082-3-361" clipPathUnits="userSpaceOnUse">
   <path d="M 361.9375,-212 C 507.2348,-212 528,-191.28677 528,-46.125 V 70.125 C 528,215.28618 507.2348,236 361.9375,236 H 214.0625 C 68.7652,236 48,215.28618 48,70.125 V -46.125 C 48,-191.28677 68.7652,-212 214.0625,-212 Z" style="fill:#8c59d9"/>
  </clipPath>
  <filter style="color-interpolation-filters:sRGB" id="filter4569" width="1.023" height="1.025" x="-.01" y="-.01">
   <feGaussianBlur stdDeviation="1.16"/>
  </filter>
  <filter style="color-interpolation-filters:sRGB" id="filter939" width="1.046" height="1.05" x="-.02" y="-.03">
   <feGaussianBlur stdDeviation="2.32"/>
  </filter>
  <clipPath id="clipPath16" clipPathUnits="userSpaceOnUse">
   <path d="M 0,512 H 512 V 0 H 0 Z"/>
  </clipPath>
  <filter style="color-interpolation-filters:sRGB" id="filter2565" width="1.126" height="1.078" x="-.06" y="-.04">
   <feGaussianBlur stdDeviation="3.666"/>
  </filter>
 </defs>
 <path style="opacity:0.2;filter:url(#filter939)" d="m 162.53675,5.5680001 c 72.64865,0 83.03125,10.3566149 83.03125,82.9375049 v 58.125005 c 0,72.58059 -10.3826,82.9375 -83.03125,82.9375 H 88.599254 C 15.9506,229.56801 5.568,219.2111 5.568,146.63051 V 88.505505 c 0,-72.58089 10.3826,-82.9375049 83.031254,-82.9375049 z" transform="matrix(1.019368,0,0,1.019368,-7.2181772e-8,8.3098661)"/>
 <path d="m 165.68477,11.946967 c 74.05571,0 84.6394,10.557203 84.6394,84.543835 v 59.250778 c 0,73.98633 -10.58369,84.54383 -84.6394,84.54383 H 90.315249 c -74.055717,0 -84.6394076,-10.5575 -84.6394076,-84.54383 V 96.490802 c 0,-73.986632 10.5836906,-84.543835 84.6394076,-84.543835 z" style="opacity:0.1;fill:none;stroke:#000000;stroke-width:4.07747173;stroke-linecap:round;stroke-linejoin:round"/>
 <path d="m 162.53675,3.5680001 c 72.64865,0 83.03125,10.3566149 83.03125,82.9375049 v 58.125005 c 0,72.58059 -10.3826,82.9375 -83.03125,82.9375 H 88.599254 C 15.9506,227.56801 5.568,217.2111 5.568,144.63051 V 86.505505 c 0,-72.58089 10.3826,-82.9375049 83.031254,-82.9375049 z" transform="matrix(1.019368,0,0,1.019368,-7.2181772e-8,8.3098661)" style="opacity:0.1;filter:url(#filter4569)"/>
 <path style="fill:#49b749" d="m 165.68476,11.946967 c 74.05571,0 84.6394,10.557203 84.6394,84.543835 v 59.250778 c 0,73.98633 -10.58369,84.54383 -84.6394,84.54383 H 90.315238 c -74.055712,0 -84.6394026,-10.5575 -84.6394026,-84.54383 V 96.490802 c 0,-73.986632 10.5836906,-84.543835 84.6394026,-84.543835 z"/>
 <path d="M 361.9375,-212 C 507.2348,-212 528,-191.28677 528,-46.125 V 70.125 C 528,215.28618 507.2348,236 361.9375,236 H 214.0625 C 68.7652,236 48,215.28618 48,70.125 V -46.125 C 48,-191.28677 68.7652,-212 214.0625,-212 Z" clip-path="url(#clipPath1082-3-361)" transform="matrix(0.50968403,0,0,0.50968403,-18.788999,120)" style="opacity:0.4;fill:none;stroke:url(#linearGradient1108);stroke-width:8;stroke-linecap:round;stroke-linejoin:round"/>
 <path style="opacity:0.2;fill:#ffffff" d="M 127.69157,11.946967 V 240.28541 h 37.77978 c 74.24243,0 84.85281,-10.5575 84.85281,-84.54383 V 96.490802 c 0,-73.986632 -10.61038,-84.543835 -84.85281,-84.543835 z"/>
 <path style="opacity:0.25;fill:#ffffff" d="m 90.315238,240.28541 c -74.055712,0 -84.6394026,-10.5572 -84.6394026,-84.54383 V 126.11621 H 250.32416 v 29.62537 c 0,73.98663 -10.58369,84.54383 -84.6394,84.54383 z"/>
 <g style="fill:#0e0e0e;filter:url(#filter2565);opacity:0.3" transform="matrix(0.70654214,0,0,-0.70654214,-52.875073,306.99126)">
  <g style="fill:#0e0e0e">
   <g style="fill:#0e0e0e" clip-path="url(#clipPath16)">
    <g style="fill:#0e0e0e" transform="translate(323.9554,323.9949)">
     <path d="M 0,0 H 0.002 L 2.128,4.057 V 45.233 H 2.115 -39.048 l -4.109,-4.145 -19.429,-37.026 -6.11,-4.122 h -69.342 v -56.545 h 38.122 l 3.395,-4.107 -39.39,-75.278 h -0.002 l -2.125,-4.057 v -41.175 h 0.012 41.163 l 4.109,4.144 19.429,37.026 6.11,4.122 H 2.128 v 56.545 h -38.122 l -3.392,4.135 z" style="fill:#0e0e0e"/>
    </g>
   </g>
  </g>
 </g>
 <g transform="matrix(0.70654214,0,0,-0.70654214,-52.875073,306.99126)" style="fill:#ffffff">
  <g style="fill:#ffffff">
   <g clip-path="url(#clipPath16)" style="fill:#ffffff">
    <g transform="translate(323.9554,323.9949)" style="fill:#ffffff">
     <path style="fill:#ffffff" d="M 0,0 H 0.002 L 2.128,4.057 V 45.233 H 2.115 -39.048 l -4.109,-4.145 -19.429,-37.026 -6.11,-4.122 h -69.342 v -56.545 h 38.122 l 3.395,-4.107 -39.39,-75.278 h -0.002 l -2.125,-4.057 v -41.175 h 0.012 41.163 l 4.109,4.144 19.429,37.026 6.11,4.122 H 2.128 v 56.545 h -38.122 l -3.392,4.135 z"/>
    </g>
   </g>
  </g>
 </g>
</svg>
